assets/svgs/misc-grey/MiscGrey100.svg

<svg width="48" height="44" viewBox="0 0 48 44" fill="none" xmlns="http://www.w3.org/2000/svg">
<path fill-rule="evenodd" clip-rule="evenodd" d="M3.408 22.91C4.178 12.31 13.054 3.91003 23.854 3.91003C34.653 3.91003 43.529 12.31 44.299 22.91H3.408ZM23.854 0.910034C10.896 0.910034 0.354004 11.45 0.354004 24.41C0.354004 25.24 1.025 25.91 1.854 25.91H21.354V37.38C21.354 39.12 22.566 43.66 28.104 43.66C32.786 43.66 34.237 39.79 34.351 37.75C34.397 36.92 33.764 36.21 32.937 36.16C32.13 36.14 31.402 36.75 31.356 37.58C31.338 37.89 31.098 40.66 28.104 40.66C24.59 40.66 24.363 37.91 24.354 37.38V25.91H45.854C46.682 25.91 47.354 25.24 47.354 24.41C47.354 11.45 36.812 0.910034 23.854 0.910034Z" fill="#1A1919"/>
</svg>

<svg xmlns="http://www.w3.org/2000/svg" fill="none" viewBox="0 0 48 44"><path fill="#1A1919" fill-rule="evenodd" d="M3.408 22.91c.77-10.6 9.646-19 20.446-19 10.799 0 19.675 8.4 20.445 19H3.408zm20.446-22C10.896.91.354 11.45.354 24.41c0 .83.671 1.5 1.5 1.5h19.5v11.47c0 1.74 1.212 6.28 6.75 6.28 4.682 0 6.133-3.87 6.247-5.91a1.509 1.509 0 00-1.414-1.59c-.807-.02-1.535.59-1.581 1.42-.018.31-.258 3.08-3.252 3.08-3.514 0-3.741-2.75-3.75-3.28V25.91h21.5a1.5 1.5 0 001.5-1.5c0-12.96-10.542-23.5-23.5-23.5z" clip-rule="evenodd"/></svg>
